style/elvis/src/icons/svg/src/email.svg

<svg width="24" height="24" viewBox="0 0 24 24" fill="none" xmlns="http://www.w3.org/2000/svg">
<path d="M3.25 20.519C2.009 20.519 1 19.5088 1 18.2664V6.25259C1 5.74801 1.164 5.27046 1.476 4.871C1.483 4.85999 1.491 4.84898 1.498 4.83996C1.504 4.83196 1.513 4.82194 1.521 4.81293C1.946 4.29834 2.577 4 3.25 4H21.25C21.921 4 22.551 4.29734 22.981 4.81494C22.991 4.82495 23 4.83596 23.007 4.84597C23.013 4.85298 23.019 4.86299 23.025 4.872C23.336 5.27146 23.5 5.74801 23.5 6.25259V18.2664C23.5 19.5088 22.491 20.519 21.25 20.519H3.25ZM2.5 18.2664C2.5 18.6809 2.836 19.0172 3.25 19.0172H21.25C21.664 19.0172 22 18.6809 22 18.2664V6.56494L14.724 12.1674C14.02 12.71 13.141 13.0093 12.25 13.0093C11.359 13.0093 10.48 12.71 9.776 12.1674L2.5 6.56494V18.2664ZM10.69 10.977C11.134 11.3194 11.688 11.5076 12.25 11.5076C12.812 11.5076 13.365 11.3194 13.809 10.977L20.92 5.50072H3.579L10.69 10.977Z" fill="black"/>
</svg>

<svg width="24" height="24" fill="none" xmlns="http://www.w3.org/2000/svg"><path d="M3.25 20.519A2.253 2.253 0 011 18.266V6.253a2.224 2.224 0 01.498-1.413l.023-.027A2.237 2.237 0 013.25 4h18a2.244 2.244 0 011.757.846l.018.026c.311.4.475.876.475 1.38v12.014a2.253 2.253 0 01-2.25 2.253h-18zm-.75-2.253a.75.75 0 00.75.751h18a.75.75 0 00.75-.75V6.564l-7.276 5.602a4.074 4.074 0 01-2.474.842c-.891 0-1.77-.299-2.474-.842L2.5 6.565v11.701zm8.19-7.289a2.564 2.564 0 003.119 0l7.111-5.476H3.579l7.111 5.476z" fill="#1B314B"/></svg>
